src/assets/icons/gif.svg

<svg xmlns="http://www.w3.org/2000/svg" xmlns:xlink="http://www.w3.org/1999/xlink" viewBox="0 0 24 24" width="24" height="24" style="width: 100%; height: 100%; transform: translate3d(0px, 0px, 0px); content-visibility: visible;" preserveAspectRatio="xMidYMid meet"><defs><clipPath id="__lottie_element_130"><rect width="24" height="24" x="0" y="0"></rect></clipPath><clipPath id="__lottie_element_132"><path d="M0,0 L600,0 L600,600 L0,600z"></path></clipPath><g id="__lottie_element_136"><g clip-path="url(#__lottie_element_140)" style="display: block;" transform="matrix(1,0,0,1,0,0)" opacity="1"><g style="display: block;" transform="matrix(25,0,0,25,300.0060119628906,299.99298095703125)" opacity="1"><g opacity="1" transform="matrix(1,0,0,1,0,0)"><path fill="rgb(255,255,255)" fill-opacity="1" d=" M3.0299999713897705,3.7190001010894775 C3.0299999713897705,3.7190001010894775 4.604000091552734,3.7190001010894775 4.604000091552734,3.7190001010894775 C4.604000091552734,3.7190001010894775 4.604000091552734,0.8949999809265137 4.604000091552734,0.8949999809265137 C4.604000091552734,0.8949999809265137 7.363999843597412,0.8949999809265137 7.363999843597412,0.8949999809265137 C7.363999843597412,0.8949999809265137 7.363999843597412,-0.5289999842643738 7.363999843597412,-0.5289999842643738 C7.363999843597412,-0.5289999842643738 4.604000091552734,-0.5289999842643738 4.604000091552734,-0.5289999842643738 C4.604000091552734,-0.5289999842643738 4.604000091552734,-2.2960000038146973 4.604000091552734,-2.2960000038146973 C4.604000091552734,-2.2960000038146973 8,-2.2960000038146973 8,-2.2960000038146973 C8,-2.2960000038146973 8,-3.7190001010894775 8,-3.7190001010894775 C8,-3.7190001010894775 3.0299999713897705,-3.7190001010894775 3.0299999713897705,-3.7190001010894775 C3.0299999713897705,-3.7190001010894775 3.0299999713897705,3.7190001010894775 3.0299999713897705,3.7190001010894775z"></path></g></g><g style="display: block;" transform="matrix(25,0,0,25,299.9960021972656,299.99298095703125)" opacity="1"><g opacity="1" transform="matrix(1,0,0,1,0,0)"><path fill="rgb(255,255,255)" fill-opacity="1" d=" M1.5199999809265137,3.7190001010894775 C1.5199999809265137,3.7190001010894775 -0.05400000140070915,3.7190001010894775 -0.05400000140070915,3.7190001010894775 C-0.05400000140070915,3.7190001010894775 -0.05400000140070915,-3.7190001010894775 -0.05400000140070915,-3.7190001010894775 C-0.05400000140070915,-3.7190001010894775 1.5199999809265137,-3.7190001010894775 1.5199999809265137,-3.7190001010894775 C1.5199999809265137,-3.7190001010894775 1.5199999809265137,3.7190001010894775 1.5199999809265137,3.7190001010894775z"></path></g></g><g style="display: block;" transform="matrix(25,0,0,25,299.9950256347656,299.99298095703125)" opacity="1"><g opacity="1" transform="matrix(1,0,0,1,0,0)"><path fill="rgb(255,255,255)" fill-opacity="1" d=" M-4.820000171661377,3.869999885559082 C-5.445000171661377,3.869999885559082 -5.998000144958496,3.7079999446868896 -6.480000019073486,3.384999990463257 C-6.961999893188477,3.062000036239624 -7.335000038146973,2.6080000400543213 -7.60099983215332,2.0260000228881836 C-7.867000102996826,1.437000036239624 -8,0.7620000243186951 -8,0 C-8,-0.7549999952316284 -7.860000133514404,-1.4229999780654907 -7.579999923706055,-2.005000114440918 C-7.293000221252441,-2.5869998931884766 -6.879000186920166,-3.0429999828338623 -6.340000152587891,-3.374000072479248 C-5.794000148773193,-3.7049999237060547 -5.144000053405762,-3.869999885559082 -4.388999938964844,-3.869999885559082 C-3.749000072479248,-3.869999885559082 -3.177999973297119,-3.7339999675750732 -2.674999952316284,-3.4609999656677246 C-2.1649999618530273,-3.187999963760376 -1.7799999713897705,-2.802999973297119 -1.5210000276565552,-2.306999921798706 C-1.5210000276565552,-2.306999921798706 -2.739000082015991,-1.434000015258789 -2.739000082015991,-1.434000015258789 C-3.1059999465942383,-2.109999895095825 -3.6519999504089355,-2.447000026702881 -4.377999782562256,-2.447000026702881 C-5.039000034332275,-2.447000026702881 -5.546000003814697,-2.2320001125335693 -5.8979997634887695,-1.8009999990463257 C-6.25,-1.3769999742507935 -6.426000118255615,-0.7760000228881836 -6.426000118255615,0 C-6.426000118255615,0.7829999923706055 -6.25,1.3869999647140503 -5.8979997634887695,1.8109999895095825 C-5.546000003814697,2.234999895095825 -5.039000034332275,2.447000026702881 -4.377999782562256,2.447000026702881 C-4.083000183105469,2.447000026702881 -3.812999963760376,2.3929998874664307 -3.569000005722046,2.2850000858306885 C-3.316999912261963,2.1700000762939453 -3.124000072479248,2.0160000324249268 -2.986999988555908,1.8220000267028809 C-2.986999988555908,1.8220000267028809 -2.986999988555908,0.8949999809265137 -2.986999988555908,0.8949999809265137 C-2.986999988555908,0.8949999809265137 -4.701000213623047,0.8949999809265137 -4.701000213623047,0.8949999809265137 C-4.701000213623047,0.8949999809265137 -4.701000213623047,-0.5070000290870667 -4.701000213623047,-0.5070000290870667 C-4.701000213623047,-0.5070000290870667 -1.4559999704360962,-0.5070000290870667 -1.4559999704360962,-0.5070000290870667 C-1.4559999704360962,-0.5070000290870667 -1.4559999704360962,3.7190001010894775 -1.4559999704360962,3.7190001010894775 C-1.4559999704360962,3.7190001010894775 -2.7279999256134033,3.7190001010894775 -2.7279999256134033,3.7190001010894775 C-2.7279999256134033,3.7190001010894775 -2.933000087738037,3.006999969482422 -2.933000087738037,3.006999969482422 C-3.3570001125335693,3.5820000171661377 -3.9860000610351562,3.869999885559082 -4.820000171661377,3.869999885559082z"></path></g></g></g></g><clipPath id="__lottie_element_140"><path d="M0,0 L600,0 L600,600 L0,600z"></path></clipPath><filter id="__lottie_element_154" filterUnits="objectBoundingBox" x="0%" y="0%" width="100%" height="100%"><feComponentTransfer in="SourceGraphic"><feFuncA type="table" tableValues="1.0 0.0"></feFuncA></feComponentTransfer></filter><mask id="__lottie_element_136_2" mask-type="alpha"><g filter="url(#__lottie_element_154)"><rect width="600" height="600" x="0" y="0" fill="#ffffff" opacity="0"></rect><use xlink:href="#__lottie_element_136"></use></g></mask><g id="__lottie_element_136"><g clip-path="url(#__lottie_element_140)" style="display: block;" transform="matrix(1,0,0,1,0,0)" opacity="1"><g style="display: block;" transform="matrix(25,0,0,25,300.0060119628906,299.99298095703125)" opacity="1"><g opacity="1" transform="matrix(1,0,0,1,0,0)"><path fill="rgb(255,255,255)" fill-opacity="1" d=" M3.0299999713897705,3.7190001010894775 C3.0299999713897705,3.7190001010894775 4.604000091552734,3.7190001010894775 4.604000091552734,3.7190001010894775 C4.604000091552734,3.7190001010894775 4.604000091552734,0.8949999809265137 4.604000091552734,0.8949999809265137 C4.604000091552734,0.8949999809265137 7.363999843597412,0.8949999809265137 7.363999843597412,0.8949999809265137 C7.363999843597412,0.8949999809265137 7.363999843597412,-0.5289999842643738 7.363999843597412,-0.5289999842643738 C7.363999843597412,-0.5289999842643738 4.604000091552734,-0.5289999842643738 4.604000091552734,-0.5289999842643738 C4.604000091552734,-0.5289999842643738 4.604000091552734,-2.2960000038146973 4.604000091552734,-2.2960000038146973 C4.604000091552734,-2.2960000038146973 8,-2.2960000038146973 8,-2.2960000038146973 C8,-2.2960000038146973 8,-3.7190001010894775 8,-3.7190001010894775 C8,-3.7190001010894775 3.0299999713897705,-3.7190001010894775 3.0299999713897705,-3.7190001010894775 C3.0299999713897705,-3.7190001010894775 3.0299999713897705,3.7190001010894775 3.0299999713897705,3.7190001010894775z"></path></g></g><g style="display: block;" transform="matrix(25,0,0,25,299.9960021972656,299.99298095703125)" opacity="1"><g opacity="1" transform="matrix(1,0,0,1,0,0)"><path fill="rgb(255,255,255)" fill-opacity="1" d=" M1.5199999809265137,3.7190001010894775 C1.5199999809265137,3.7190001010894775 -0.05400000140070915,3.7190001010894775 -0.05400000140070915,3.7190001010894775 C-0.05400000140070915,3.7190001010894775 -0.05400000140070915,-3.7190001010894775 -0.05400000140070915,-3.7190001010894775 C-0.05400000140070915,-3.7190001010894775 1.5199999809265137,-3.7190001010894775 1.5199999809265137,-3.7190001010894775 C1.5199999809265137,-3.7190001010894775 1.5199999809265137,3.7190001010894775 1.5199999809265137,3.7190001010894775z"></path></g></g><g style="display: block;" transform="matrix(25,0,0,25,299.9950256347656,299.99298095703125)" opacity="1"><g opacity="1" transform="matrix(1,0,0,1,0,0)"><path fill="rgb(255,255,255)" fill-opacity="1" d=" M-4.820000171661377,3.869999885559082 C-5.445000171661377,3.869999885559082 -5.998000144958496,3.7079999446868896 -6.480000019073486,3.384999990463257 C-6.961999893188477,3.062000036239624 -7.335000038146973,2.6080000400543213 -7.60099983215332,2.0260000228881836 C-7.867000102996826,1.437000036239624 -8,0.7620000243186951 -8,0 C-8,-0.7549999952316284 -7.860000133514404,-1.4229999780654907 -7.579999923706055,-2.005000114440918 C-7.293000221252441,-2.5869998931884766 -6.879000186920166,-3.0429999828338623 -6.340000152587891,-3.374000072479248 C-5.794000148773193,-3.7049999237060547 -5.144000053405762,-3.869999885559082 -4.388999938964844,-3.869999885559082 C-3.749000072479248,-3.869999885559082 -3.177999973297119,-3.7339999675750732 -2.674999952316284,-3.4609999656677246 C-2.1649999618530273,-3.187999963760376 -1.7799999713897705,-2.802999973297119 -1.5210000276565552,-2.306999921798706 C-1.5210000276565552,-2.306999921798706 -2.739000082015991,-1.434000015258789 -2.739000082015991,-1.434000015258789 C-3.1059999465942383,-2.109999895095825 -3.6519999504089355,-2.447000026702881 -4.377999782562256,-2.447000026702881 C-5.039000034332275,-2.447000026702881 -5.546000003814697,-2.2320001125335693 -5.8979997634887695,-1.8009999990463257 C-6.25,-1.3769999742507935 -6.426000118255615,-0.7760000228881836 -6.426000118255615,0 C-6.426000118255615,0.7829999923706055 -6.25,1.3869999647140503 -5.8979997634887695,1.8109999895095825 C-5.546000003814697,2.234999895095825 -5.039000034332275,2.447000026702881 -4.377999782562256,2.447000026702881 C-4.083000183105469,2.447000026702881 -3.812999963760376,2.3929998874664307 -3.569000005722046,2.2850000858306885 C-3.316999912261963,2.1700000762939453 -3.124000072479248,2.0160000324249268 -2.986999988555908,1.8220000267028809 C-2.986999988555908,1.8220000267028809 -2.986999988555908,0.8949999809265137 -2.986999988555908,0.8949999809265137 C-2.986999988555908,0.8949999809265137 -4.701000213623047,0.8949999809265137 -4.701000213623047,0.8949999809265137 C-4.701000213623047,0.8949999809265137 -4.701000213623047,-0.5070000290870667 -4.701000213623047,-0.5070000290870667 C-4.701000213623047,-0.5070000290870667 -1.4559999704360962,-0.5070000290870667 -1.4559999704360962,-0.5070000290870667 C-1.4559999704360962,-0.5070000290870667 -1.4559999704360962,3.7190001010894775 -1.4559999704360962,3.7190001010894775 C-1.4559999704360962,3.7190001010894775 -2.7279999256134033,3.7190001010894775 -2.7279999256134033,3.7190001010894775 C-2.7279999256134033,3.7190001010894775 -2.933000087738037,3.006999969482422 -2.933000087738037,3.006999969482422 C-3.3570001125335693,3.5820000171661377 -3.9860000610351562,3.869999885559082 -4.820000171661377,3.869999885559082z"></path></g></g></g></g></defs><g clip-path="url(#__lottie_element_130)"><g clip-path="url(#__lottie_element_132)" style="display: block;" transform="matrix(0.03999999910593033,0,0,0.03999999910593033,0,0)" opacity="1"><g style="display: block;" mask="url(#__lottie_element_136_2)"><g transform="matrix(25,0,0,25,300,300)" opacity="1"><g opacity="1" transform="matrix(1,0,0,1,0,0)"><path fill="oklab(0.700621 0.0017004 -0.0100388)" fill-opacity="1" d=" M-7,-10 C-8.656999588012695,-10 -10,-8.656999588012695 -10,-7 C-10,-7 -10,7 -10,7 C-10,8.656999588012695 -8.656999588012695,10 -7,10 C-7,10 7,10 7,10 C8.656999588012695,10 10,8.656999588012695 10,7 C10,7 10,-7 10,-7 C10,-8.656999588012695 8.656999588012695,-10 7,-10 C7,-10 -7,-10 -7,-10z"></path></g></g></g></g></g></svg>

<svg xmlns="http://www.w3.org/2000/svg" xmlns:xlink="http://www.w3.org/1999/xlink" width="24" height="24" style="width:100%;height:100%;transform:translate3d(0,0,0);content-visibility:visible" viewBox="0 0 24 24"><defs><clipPath id="d"><path d="M0 0h24v24H0z"/></clipPath><clipPath id="e"><path d="M0 0h600v600H0z"/></clipPath><clipPath id="a"><path d="M0 0h600v600H0z"/></clipPath><filter id="b" width="100%" height="100%" x="0%" y="0%" filterUnits="objectBoundingBox"><feComponentTransfer in="SourceGraphic"><feFuncA tableValues="1.0 0.0" type="table"/></feComponentTransfer></filter><mask id="f" mask-type="alpha"><g filter="url(#b)"><path fill="#fff" d="M0 0h600v600H0z" opacity="0"/><use xlink:href="#c"/></g></mask><g id="c" clip-path="url(#a)" style="display:block"><path fill="#fff" d="M3.03 3.719h1.574V.895h2.76V-.529h-2.76v-1.767H8v-1.423H3.03z" style="display:block" transform="matrix(25 0 0 25 300.006 299.993)"/><path fill="#fff" d="M1.52 3.719H-.054v-7.438H1.52z" style="display:block" transform="matrix(25 0 0 25 299.996 299.993)"/><path fill="#fff" d="M-4.82 3.87a2.9 2.9 0 0 1-1.66-.485q-.723-.485-1.121-1.359Q-8 1.143-8 0q0-1.132.42-2.005a3.27 3.27 0 0 1 1.24-1.369q.819-.496 1.951-.496.96 0 1.714.409.765.41 1.154 1.154l-1.218.873q-.55-1.014-1.639-1.013-.992 0-1.52.646-.528.637-.528 1.801 0 1.175.528 1.811t1.52.636q.443 0 .809-.162.377-.172.582-.463V.895h-1.714V-.507h3.245v4.226h-1.272l-.205-.712q-.636.863-1.887.863" style="display:block" transform="matrix(25 0 0 25 299.995 299.993)"/></g></defs><g clip-path="url(#d)"><g clip-path="url(#e)" style="display:block" transform="scale(.04)"><g mask="url(#f)" style="display:block"><path fill="oklab(0.700621 0.0017004 -0.0100388)" d="M125 50c-41.425 0-75 33.575-75 75v350c0 41.425 33.575 75 75 75h350c41.425 0 75-33.575 75-75V125c0-41.425-33.575-75-75-75z"/></g></g></g></svg>
